assets/images/vector/icons/award_icon.svg

<svg fill="none" height="60" viewBox="0 0 49 60" width="49" xmlns="http://www.w3.org/2000/svg"><g stroke="#111" stroke-linecap="round" stroke-linejoin="round" stroke-width="10"><path d="m26.1911 40.4432 2.59-2.1733c.6-.5033 1.36-.78 2.1433-.78h3.38c1.6167 0 3.0033-1.16 3.2833-2.7533l.5867-3.33c.1367-.7734.54-1.47 1.14-1.9734l2.59-2.1733c1.24-1.04 1.5533-2.82.7433-4.22l-1.69-2.93c-.3933-.68-.5333-1.4733-.3966-2.2467l.5866-3.33c.28-1.5933-.6233-3.1566-2.1433-3.71l-3.1767-1.15665c-.7366-.26666-1.3533-.78666-1.7466-1.46666l-1.69-2.93c-.81-1.4-2.5067-2.02-4.0267-1.46667l-3.1767 1.15667c-.7366.26666-1.5433.26666-2.28 0l-3.1766-1.15667c-1.52-.55333-3.2167.06333-4.0267 1.46667l-1.69 2.93c-.3933.68-1.01 1.19666-1.7467 1.46666l-3.17663 1.15665c-1.52.5534-2.42334 2.1167-2.14334 3.71l.58667 3.33c.13667.7734-.00333 1.5667-.39667 2.2467l-1.69 2.93c-.81 1.4-.49667 3.18.74333 4.22l2.59001 2.1733c.6.5034 1.00333 1.2034 1.14 1.9734l.58663 3.33c.28 1.5933 1.6667 2.7533 3.2834 2.7533h3.38c.7833 0 1.5433.2767 2.1433.78l2.59 2.1733c1.24 1.04 3.0467 1.04 4.2867 0z"/><path d="m34.8815 45.8333v11.6666l-10.8333-8.3333-10.8334 8.3333v-11.6666"/><path d="m24.0475 29.0799c3.6819 0 6.6667-2.9848 6.6667-6.6667 0-3.6818-2.9848-6.6666-6.6667-6.6666s-6.6666 2.9848-6.6666 6.6666c0 3.6819 2.9847 6.6667 6.6666 6.6667z"/></g></svg>

<svg width="49" height="60" viewBox="0 0 49 60" fill="none" xmlns="http://www.w3.org/2000/svg">
<path d="M26.1911 40.4432L28.7811 38.2699C29.3811 37.7666 30.1411 37.4899 30.9244 37.4899H34.3044C35.9211 37.4899 37.3077 36.3299 37.5877 34.7366L38.1744 31.4066C38.3111 30.6332 38.7144 29.9366 39.3144 29.4332L41.9044 27.2599C43.1444 26.2199 43.4577 24.4399 42.6477 23.0399L40.9577 20.1099C40.5644 19.4299 40.4244 18.6366 40.5611 17.8632L41.1477 14.5332C41.4277 12.9399 40.5244 11.3766 39.0044 10.8232L35.8277 9.66655C35.0911 9.39989 34.4744 8.87989 34.0811 8.19989L32.3911 5.26989C31.5811 3.86989 29.8844 3.24989 28.3644 3.80322L25.1877 4.95989C24.4511 5.22655 23.6444 5.22655 22.9077 4.95989L19.7311 3.80322C18.2111 3.24989 16.5144 3.86655 15.7044 5.26989L14.0144 8.19989C13.6211 8.87989 13.0044 9.39655 12.2677 9.66655L9.09107 10.8232C7.57107 11.3766 6.66773 12.9399 6.94773 14.5332L7.5344 17.8632C7.67107 18.6366 7.53107 19.4299 7.13773 20.1099L5.44773 23.0399C4.63773 24.4399 4.95106 26.2199 6.19106 27.2599L8.78107 29.4332C9.38107 29.9366 9.7844 30.6366 9.92107 31.4066L10.5077 34.7366C10.7877 36.3299 12.1744 37.4899 13.7911 37.4899H17.1711C17.9544 37.4899 18.7144 37.7666 19.3144 38.2699L21.9044 40.4432C23.1444 41.4832 24.9511 41.4832 26.1911 40.4432Z" stroke="#111111" stroke-width="10" stroke-linecap="round" stroke-linejoin="round"/>
<path d="M34.8815 45.8333V57.4999L24.0482 49.1666L13.2148 57.4999V45.8333" stroke="#111111" stroke-width="10" stroke-linecap="round" stroke-linejoin="round"/>
<path d="M24.0475 29.0799C27.7294 29.0799 30.7142 26.0951 30.7142 22.4132C30.7142 18.7314 27.7294 15.7466 24.0475 15.7466C20.3656 15.7466 17.3809 18.7314 17.3809 22.4132C17.3809 26.0951 20.3656 29.0799 24.0475 29.0799Z" stroke="#111111" stroke-width="10" stroke-linecap="round" stroke-linejoin="round"/>
</svg>
